X: 21323
T: CONWAY HORNPIPE
R: hornpipe, reel
B: K\"ohler's Violin Repository, v.2, 1885 p.132 #3
F: http://www.archive.org/details/klersviolinrepos02rugg
Z: 2012 John Chambers <jc:trillian.mit.edu>
M: C|
L: 1/8
K: Bb
(uDC) |\
B,DFD EGB2 | (FA)cA Bdf2 | (fe)ce dcBd | (3cdB (3ABG (3FGE (3DEC |
B,DFD EGB2 | (FA)cA Bdf2 | (fe)ce dcBA | c2B2 B2 :|
|: (ufga) |\
bfdB FDFB | bfdB FDFB | GBed cBAB | (3cdB (3ABG F2 ((3fga) |
bfdB FDFB | bfdB FDFB | dBGF EeAc | c2B2 B2 :|

%%sep 2 1 500

